images/logo-black.svg

<svg height="23" viewBox="0 0 78 23" width="78" xmlns="http://www.w3.org/2000/svg"><g fill="none"><g stroke="#000" stroke-linejoin="round" transform="translate(1 1)"><path d="m14.47 21.482c5.402 0 8.285-3.354 8.285-7.296v-11.573h-3.824v11.303c0 2.5-1.332 4.338-4.461 4.338-2.475 0-4.353-1.124-4.77-3.418h-3.603c.134 4.53 4.19 6.646 8.374 6.646z"/><path d="m9.533 21.482c6.15 0 9.433-3.818 9.433-8.307v-13.175h-4.354v12.869c0 2.845-1.516 4.938-5.08 4.938-2.817 0-4.955-1.28-5.428-3.89h-4.104c.153 5.155 4.769 7.565 9.533 7.565z"/></g><path d="m4.107 19.435v-7.44c.469-.963 1.928-3.24 5.226-3.24v-3.26c-3.21 0-4.709 2.726-5.226 4.405v-4.088h-3.564v13.623zm13.707-13.94c3.523 0 5.447 1.767 6.186 4.348v-4.031h3.565v13.623h-3.313s-.183-1.37-.237-2.78l-.01-.368c-.003-.123-.005-.245-.005-.365v-.86c-.755 2.474-2.742 4.681-6.374 4.681-4.075 0-7.286-2.85-7.286-7.1 0-4.303 3.215-7.148 7.474-7.148zm.96 2.781c-3.05 0-4.793 1.732-4.793 4.366 0 2.625 1.913 4.347 4.793 4.348l.24-.004c3.086-.084 4.986-1.804 4.986-4.344 0-2.802-2.029-4.366-5.226-4.366zm17.188 11.159v-10.667h4.335v-2.7h-4.335v-.564c0-1.872.925-2.334 2.553-2.297h1.98v-2.877h-2.837c-3.427 0-5.26 1.456-5.26 4.746v.994h-3.075v2.699h3.074v10.667h3.565zm12.149 0v-10.924h3.508v-2.699h-3.508v-3.736h-3.564v3.736h-3.507v2.699h3.507v10.924z" fill="#000" transform="translate(25.966 2.451)"/></g></svg>

<svg xmlns="http://www.w3.org/2000/svg" width="78" height="23" viewBox="0 0 78 23">
    <g fill="none">
        <g stroke="#000" stroke-linejoin="round">
            <path d="M14.47 21.482c5.402 0 8.285-3.354 8.285-7.296V2.613h-3.824v11.303c0 2.5-1.332 4.338-4.461 4.338-2.475 0-4.353-1.124-4.77-3.418H6.097c.134 4.53 4.19 6.646 8.374 6.646z" transform="translate(1 1)"/>
            <path d="M9.533 21.482c6.15 0 9.433-3.818 9.433-8.307V0h-4.354v12.869c0 2.845-1.516 4.938-5.08 4.938-2.817 0-4.955-1.28-5.428-3.89H0c.153 5.155 4.769 7.565 9.533 7.565z" transform="translate(1 1)"/>
        </g>
        <g fill="#000">
            <path d="M4.107 19.435v-7.44c.469-.963 1.928-3.24 5.226-3.24v-3.26c-3.21 0-4.709 2.726-5.226 4.405V5.812H.543v13.623h3.564zM17.814 5.495c3.523 0 5.447 1.767 6.186 4.348V5.812h3.565v13.623h-3.313s-.183-1.37-.237-2.78l-.01-.368c-.003-.123-.005-.245-.005-.365v-.86c-.755 2.474-2.742 4.681-6.374 4.681-4.075 0-7.286-2.85-7.286-7.1 0-4.303 3.215-7.148 7.474-7.148zm.96 2.781c-3.05 0-4.793 1.732-4.793 4.366 0 2.625 1.913 4.347 4.793 4.348l.24-.004C22.1 16.902 24 15.182 24 12.642c0-2.802-2.029-4.366-5.226-4.366zM35.962 19.435V8.768h4.335v-2.7h-4.335v-.564c0-1.872.925-2.334 2.553-2.297h1.98V.33h-2.837c-3.427 0-5.26 1.456-5.26 4.746v.994h-3.075v2.699h3.074v10.667h3.565zM48.111 19.435L48.111 8.511 51.619 8.511 51.619 5.812 48.111 5.812 48.111 2.076 44.547 2.076 44.547 5.812 41.04 5.812 41.04 8.511 44.547 8.511 44.547 19.435z" transform="translate(1 1) translate(24.966 1.451)"/>
        </g>
    </g>
</svg>
